X:44
T:Copenhagen Waltz, The
S:John Moore's Book 2
Z:Transcribed by Steve Mansfield 04/2021
%%VWML: Moore1-4494-p34-0
F:http://www.vwml.org/record/Moore2/4494/p34
M:3/4
L:1/8
N:Note editorial as obscured by ink blot on Mss
K:G
(f<a) | (g<b) (f<a) (e<g) | (f<a) d2 (f<a) | (e<g) A2 (c<e) | (d<"*"f) A2 (d<f) | 
(g<b) (f<a) (e<g) | (f<a) d2 (f<a) | (e<g) A2 (c<e) | d4 :|
|: (f<a) |(e<g) A2 (c<e) | (d<f) A2(f<a) |(e<g) A2 (c<e) | (d<f) A2 (f<a) | 
(g<b) (f<a) (e<g) | (f<a) d2 (f<a) | (e<g) A2 (c<e) | d4 :|
|: a2 |(b2a2) Hg2 | d4 a2 | (b2a2) Hg2 | e4 a2 | 
b2a2 f2 | d2 dfaf | e2 efge | d4 :|

